X:2340
L:1/8
M:2/2
K:E
 B | e2 eB GBB=d | cABG AF^DB | (e2 e)B GBBa | gefd (e2 e) :| g | bgeg egbg | afdf dfaf | 
 bgeg bgeg | afdf (e2 eg) | bgeg egbg | afdf dfaf | gbaf gefd | ecBG E/E/E E ||

